X:1
T: Kelvarock
P:A very old tune
R:Strathspey
Q: 128
K:A
M:4/4
L:1/16
|:C2|A,4 A3C A,A,3 A3C|B,3B B3A FFF2 F3A|E3F AC3 E3F A3B|c3A d3B c2A2 A2C2|
A,4 A3C A,A,3 A3C|B,3B B3A FFF2 F3A|E3F AC3 E3F A3B|c3A d3B c2A2 A2cd|
e3c A3c e3f ec3|df3 e3c BBB2 B2cd|e3c A3c e3f ec3|df3 e3c AAA2 A2de|
f3d e3c d3B c3A|Af3 e3c BBB2 B4|A3F E3D C3B, A,3c|d3B e3c AAA2 A2:|
